X: 42007
T: Walsh's
R: hornpipe
M: 4/4
K: Amajor
|:cB|A/B/c EF Ac e2|d/e/f Bc de f2|fece aecA|B/c/d cA BA F2|
A/B/c EF Ac e2|d/e/f Bc de f2|fece aecA|1 B/c/d cB A2:|2 B/c/d cB A4||
|:aece fece|aece fecB|ABce fecA|B/c/d cA BAF2|
A/B/c EF Ac e2|d/e/f Bc de f2|fece aecA|1 B/c/d cB A4:|2 B/c/d cB A2||

